Papirus/24x24/apps/libreoffice-draw.svg

<?xml version="1.0" encoding="UTF-8" standalone="no"?>
<!-- Created with Inkscape (http://www.inkscape.org/) -->

<svg
   width="24"
   height="24"
   viewBox="0 0 24 24"
   version="1.1"
   id="svg5"
   inkscape:version="1.2.2 (1:1.2.2+202305151914+b0a8486541)"
   sodipodi:docname="libreoffice-draw.svg"
   xmlns:inkscape="http://www.inkscape.org/namespaces/inkscape"
   xmlns:sodipodi="http://sodipodi.sourceforge.net/DTD/sodipodi-0.dtd"
   xmlns="http://www.w3.org/2000/svg"
   xmlns:svg="http://www.w3.org/2000/svg">
  <sodipodi:namedview
     id="namedview7"
     pagecolor="#ffffff"
     bordercolor="#000000"
     borderopacity="0.25"
     inkscape:showpageshadow="2"
     inkscape:pageopacity="0.0"
     inkscape:pagecheckerboard="0"
     inkscape:deskcolor="#d1d1d1"
     inkscape:document-units="px"
     showgrid="false"
     inkscape:zoom="34.583333"
     inkscape:cx="12"
     inkscape:cy="12"
     inkscape:window-width="1920"
     inkscape:window-height="1008"
     inkscape:window-x="0"
     inkscape:window-y="0"
     inkscape:window-maximized="1"
     inkscape:current-layer="svg5" />
  <defs
     id="defs2" />
  <path
     d="m 15,2.5 h 5 v 5 z m -8,0 h 7 l 6,6 v 11 c 0,1.661998 -1.338,3 -3,3 H 7 c -1.662,0 -3,-1.338 -3,-3 v -14 c 0,-1.662 1.338,-3 3,-3 z"
     style="opacity:0.2;fill:#000000;fill-opacity:1;stroke-width:1.5;stroke-linecap:square"
     id="path900" />
  <path
     id="rect339"
     style="fill:#f3ae16;fill-opacity:1;stroke-width:1.5;stroke-linecap:square"
     d="m 7,2 h 7 l 6,6 v 11 c 0,1.661998 -1.338,3 -3,3 H 7 C 5.338,22 4,20.662 4,19 V 5 C 4,3.338 5.338,2 7,2 Z" />
  <path
     d="m 15,2 h 5 v 5 z"
     style="fill:#e8a30c;fill-opacity:1;stroke-width:0.3125;stroke-linecap:square"
     id="path1087" />
  <path
     d="m 9,9.5000007 c -1.65685,0 -3,1.3431503 -3,3.0000003 0,1.65685 1.34315,3 3,3 0.39884,-0.002 0.79325,-0.0838 1.16015,-0.24023 L 8,18.500001 h 8 l -1.33399,-2 H 18 v -5 h -5 v 2.5 l -1,-1.5 C 12,10.843151 10.65685,9.5000007 9,9.5000007 Z m 5,3.0000003 h 3 v 3 h -3 z"
     style="opacity:0.2;fill:#000000;stroke-width:1.5"
     id="path2890" />
  <circle
     style="fill:#ffffff;stroke-width:1.5"
     id="path5571"
     cx="9.0000105"
     cy="12"
     r="3" />
  <path
     id="rect5573"
     style="fill:#ffffff"
     d="m 13,11.000001 v 5 h 5 v -5 z m 1,1 h 3 v 3 h -3 z"
     sodipodi:nodetypes="cccccccccc" />
  <path
     id="rect5601"
     style="fill:#fde9b6;fill-opacity:1;stroke-width:1.73204"
     d="m 12,12.000001 4,6 H 8 Z"
     sodipodi:nodetypes="cccc" />
  <path
     id="path1067"
     style="opacity:0.2;fill:#ffffff;fill-opacity:1;stroke-width:1.5;stroke-linecap:square"
     d="M 7,2 C 5.3380015,2 4,3.3380017 4,5 v 0.5 c 0,-1.6619983 1.3380015,-3 3,-3 h 7.5 L 14,2 Z m 8,0 0.5,0.5 H 20 V 2 Z" />
</svg>

<svg xmlns="http://www.w3.org/2000/svg" width="24" height="24" version="1.1">
 <path style="opacity:0.2" d="M 7,2.5 H 13 L 20,9.5 V 19.5 C 20,21.16 18.66,22.5 17,22.5 H 7 C 5.34,22.5 4,21.16 4,19.5 V 5.5 C 4,3.84 5.34,2.5 7,2.5 Z"/>
 <path style="fill:#f3ae16" d="M 7,2 H 13 L 20,9 V 19 C 20,20.66 18.66,22 17,22 H 7 C 5.34,22 4,20.66 4,19 V 5 C 4,3.34 5.34,2 7,2 Z"/>
 <path style="fill:#e8a30c" d="m 15,2 h 5 v 5 z"/>
 <path style="opacity:0.2" d="m 9,9.5 c -1.66,0 -3,1.34 -3,3 0,1.66 1.34,3 3,3 0.4,-0 0.79,-0.08 1.16,-0.24 L 8,18.5 h 8 l -1.33,-2 H 18 v -5 h -5 v 2.5 l -1,-1.5 C 12,10.84 10.66,9.5 9,9.5 Z m 5,3 h 3 v 3 h -3 z"/>
 <circle style="fill:#fafafa" cx="9" cy="12" r="3"/>
 <path style="fill:#fafafa" d="M 13,11 V 16 H 18 V 11 Z M 14,12 H 17 V 15 H 14 Z"/>
 <path style="fill:#fde9b6" d="m 12,12 4,6 H 8 Z"/>
 <path style="opacity:0.2;fill:#ffffff" d="M 15,2 15.5,2.5 H 20 V 2 Z"/>
 <path style="fill:#ffffff;opacity:0.2" d="M 7 2 C 5.34 2 4 3.34 4 5 L 4 5.5 C 4 3.84 5.34 2.5 7 2.5 L 13 2.5 L 20 9.5 L 20 9 L 13 2 L 7 2 z"/>
</svg>
